albertroad.htmlalbertroad.htmlalbertroad.htmlalbertroad.htmlalbertroad.htmlalbertroad.htmlalbertroad.htmlalbertroad.htmlalbertroad.html<PRE>T:Harris Dance Tune
T:Harris Dance Tune
M:C|
L:1/8
R:reel
D:John Williams: Steam
Z:Devin McCabe
K:G
B~d3 egdB|dedB ABGA|B~d3 egdB|dedB G2AG|
!B~d3 egdB|dedB A2fA|fgfd cedB1|cAdB G4:|2cAdB G3f|
!:g2fd cedB|c2de cedB|fgfd cedB|1cAdB G3f:|2cAdB G4||
albertroad.htmlalbertroad.htmlalbertroad.htmlalbertroad.htmlalbertroad.htmlalbertroad.htmlalbertroad.html